svgs/duotone/square-up-left.svg

<svg xmlns="http://www.w3.org/2000/svg" viewBox="0 0 448 512"><!--! Font Awesome Pro 6.3.0 by @fontawesome - https://fontawesome.com License - https://fontawesome.com/license (Commercial License) Copyright 2023 Fonticons, Inc. --><defs><style>.fa-secondary{opacity:.4}</style></defs><path class="fa-primary" d="M325.8 335.2l-22.63 22.63c-12.5 12.5-32.72 12.54-45.21 .0411L190.1 289.9l-45.25 45.25c-4.574 4.574-11.46 5.953-17.44 3.469c-5.988-2.477-9.877-8.309-9.877-14.78v-158.4c0-8.837 7.163-16 16-16h158.4c6.475 0 12.31 3.891 14.78 9.875c2.484 5.977 1.104 12.86-3.471 17.44l-45.25 45.25l67.92 67.92C338.4 302.5 338.3 322.7 325.8 335.2z"/><path class="fa-secondary" d="M384 32H64C28.65 32 0 60.65 0 96v320c0 35.34 28.65 64 64 64h320c35.35 0 64-28.66 64-64V96C448 60.65 419.3 32 384 32zM325.8 335.2l-22.63 22.63c-12.5 12.5-32.72 12.54-45.21 .0411L190.1 289.9l-45.25 45.25c-4.574 4.574-11.46 5.953-17.44 3.469c-5.988-2.477-9.877-8.309-9.877-14.78v-158.4c0-8.837 7.163-16 16-16h158.4c6.475 0 12.31 3.891 14.78 9.875c2.484 5.977 1.104 12.86-3.471 17.44l-45.25 45.25l67.92 67.92C338.4 302.5 338.3 322.7 325.8 335.2z"/></svg>

<svg xmlns="http://www.w3.org/2000/svg" viewBox="0 0 448 512"><!-- Font Awesome Pro 6.0.0-alpha2 by @fontawesome - https://fontawesome.com License - https://fontawesome.com/license (Commercial License) --><defs><style>.fa-secondary{opacity:.4}</style></defs><path d="M384 32H64C28.654 32 0 60.652 0 96V416C0 451.344 28.654 480 64 480H384C419.346 480 448 451.344 448 416V96C448 60.652 419.346 32 384 32ZM325.824 335.196L303.196 357.824C290.699 370.321 270.438 370.321 257.941 357.824L190.059 289.941L144.805 335.195C140.23 339.77 133.348 341.148 127.369 338.664C121.381 336.187 117.492 330.355 117.492 323.883V165.492C117.492 156.656 124.656 149.492 133.492 149.492H291.883C298.357 149.492 304.189 153.383 306.666 159.367C309.15 165.344 307.77 172.227 303.195 176.805L257.941 222.059L325.824 289.941C338.321 302.438 338.321 322.699 325.824 335.196Z" class="fa-secondary"/><path d="M325.332 335.196L302.704 357.824C290.207 370.321 269.946 370.321 257.449 357.824L189.566 289.941L144.312 335.195C139.738 339.77 132.855 341.148 126.877 338.664C120.889 336.187 117 330.355 117 323.883V165.492C117 156.656 124.163 149.492 133 149.492H291.391C297.865 149.492 303.697 153.383 306.174 159.367C308.658 165.344 307.277 172.227 302.703 176.805L257.449 222.059L325.332 289.941C337.828 302.438 337.828 322.699 325.332 335.196Z" class="fa-primary"/></svg>
